modules/feathericon/icons/pot.svg

<svg width="14" height="12" viewBox="0 0 14 12" xmlns="http://www.w3.org/2000/svg"><path d="M.996 5H13s1 0 1 .995S13 7 13 7h-1v4s0 1-1 1H2.998C2 12 2 11 2 11V7H.996S0 7 0 6s.996-1 .996-1zM4 2h1s0-2 2-2 2 2 2 2h1c2 0 2 2 2 2H2s0-2 2-2zm3-1c1 0 1 1 1 1H6s0-1 1-1z" fill="#000" fill-rule="evenodd"/></svg>

<?xml version="1.0" encoding="UTF-8"?>
<svg width="14px" height="12px" viewBox="0 0 14 12" version="1.1" xmlns="http://www.w3.org/2000/svg" xmlns:xlink="http://www.w3.org/1999/xlink">
    <!-- Generator: sketchtool 48.1 (47250) - http://www.bohemiancoding.com/sketch -->
    <title>pot</title>
    <desc>Created with sketchtool.</desc>
    <defs></defs>
    <g id="food" stroke="none" stroke-width="1" fill="none" fill-rule="evenodd">
        <g id="pot" fill="#000000">
            <path d="M0.995631754,5 L13,5 C13,5 14,5 14,5.99513968 C14,6.99027936 13,7 13,7 L12,7 L12,11 C12,11 12,12 11,12 L2.99769116,12 C2,12 2,11 2,11 L2,7 L0.995631754,7 C0.995631754,7 1.2246468e-16,7 0,6 C0,5 0.995631754,5 0.995631754,5 Z M4,2 L5,2 C5,2 5,2.27471647e-13 7,2.27373675e-13 C9,2.27373675e-13 9,2 9,2 L10,2 C12,2 12,4 12,4 L2,4 C2,4 2,2 4,2 Z M7,1 C8,1 8,2 8,2 L6,2 C6,2 6,1 7,1 Z" id="Shape"></path>
        </g>
    </g>
</svg>
